X:220
T:The old bush
R:Reel
O:Ireland
B:Ceol Rince 1 n105
Z:Transcription, chords:Mike Long
M:C|
L:1/8
K:G
"Am"A2GA cAAG|"D"Adde fdec|"Am"A3G c2 (3(ABc)|"D"d2ed cAdc|\
"Am"A2GA cAAG|"D"Add^c defg|
afge fde^c|[1 "D"dfed "Am"cAdc:|[2 "D"dfed "Am"cAA2\
|:"Am"ef{a}gf edcd|"Am"ef{a}ge c3d|"Am"efge "D"afge|
"D"d2ed "Am"cAA2|\
"Am"ef{a}gf edcd|"Am"ef{a}ge "D"d2 (3(efg)|"D"afge fde^c|[1 "D"dfed "Am"cAA2:|[2 "D"dfed cAdc|]
